assets/img/buy-now/shopping.svg

<svg fill="none" height="32" viewBox="0 0 28 32" width="28" xmlns="http://www.w3.org/2000/svg"><path d="m20 14.4444v-6.22218c0-3.43644-2.6863-6.22222-6-6.22222s-6 2.78578-6 6.22222v6.22218m-4.5-3.1111h21l1.5 18.6667h-24z" stroke="#fff" stroke-linecap="round" stroke-linejoin="round" stroke-width="3"/></svg>

<svg width="28" height="32" viewBox="0 0 28 32" fill="none" xmlns="http://www.w3.org/2000/svg">
<path d="M20 14.4444V8.22222C20 4.78578 17.3137 2 14 2C10.6863 2 8 4.78578 8 8.22222V14.4444M3.5 11.3333H24.5L26 30H2L3.5 11.3333Z" stroke="white" stroke-width="3" stroke-linecap="round" stroke-linejoin="round"/>
</svg>
